src/assets/outline/MicrophoneSlash1.svg

<svg width="24" height="24" viewBox="0 0 24 24"  xmlns="http://www.w3.org/2000/svg">
<path d="M8 11.75C7.59 11.75 7.25 11.41 7.25 11V6C7.25 3.38 9.38 1.25 12 1.25C14.62 1.25 16.75 3.38 16.75 6V6.3C16.75 6.71 16.41 7.05 16 7.05C15.59 7.05 15.25 6.71 15.25 6.3V6C15.25 4.21 13.79 2.75 12 2.75C10.21 2.75 8.75 4.21 8.75 6V11C8.75 11.41 8.41 11.75 8 11.75Z" />
<path d="M12.0002 16.25C10.6602 16.25 9.38015 15.68 8.48015 14.69C8.20015 14.38 8.23015 13.91 8.53015 13.63C8.84015 13.35 9.31015 13.38 9.59015 13.68C10.2002 14.36 11.0802 14.75 12.0002 14.75C13.7902 14.75 15.2502 13.29 15.2502 11.5V11C15.2502 10.59 15.5902 10.25 16.0002 10.25C16.4102 10.25 16.7502 10.59 16.7502 11V11.5C16.7502 14.12 14.6202 16.25 12.0002 16.25Z" />
<path d="M11.9998 19.7499C9.86982 19.7499 7.82982 18.9499 6.26982 17.4999C5.96982 17.2199 5.94982 16.7399 6.22982 16.4399C6.51982 16.1299 6.99982 16.1199 7.29982 16.3999C8.57982 17.5899 10.2498 18.2499 11.9998 18.2499C15.7998 18.2499 18.8998 15.1499 18.8998 11.3499V9.6499C18.8998 9.2399 19.2398 8.8999 19.6498 8.8999C20.0598 8.8999 20.3998 9.2399 20.3998 9.6499V11.3499C20.3998 15.9799 16.6298 19.7499 11.9998 19.7499Z" />
<path d="M4.9501 15.0799C4.6601 15.0799 4.3801 14.9099 4.2601 14.6199C3.8201 13.5799 3.6001 12.4899 3.6001 11.3499V9.6499C3.6001 9.2399 3.9401 8.8999 4.3501 8.8999C4.7601 8.8999 5.1001 9.2399 5.1001 9.6499V11.3499C5.1001 12.2799 5.2801 13.1799 5.6401 14.0299C5.8001 14.4099 5.6201 14.8499 5.2401 15.0099C5.1501 15.0599 5.0501 15.0799 4.9501 15.0799Z" />
<path d="M3.91986 19.74C3.72986 19.74 3.53986 19.67 3.38986 19.52C3.09986 19.23 3.09986 18.75 3.38986 18.46L19.5399 2.31003C19.8299 2.02003 20.3099 2.02003 20.5999 2.31003C20.8899 2.60003 20.8899 3.08003 20.5999 3.37003L4.45986 19.52C4.30986 19.67 4.11986 19.74 3.91986 19.74Z" />
<path d="M11 6.75C10.59 6.75 10.25 6.41 10.25 6V3C10.25 2.59 10.59 2.25 11 2.25C11.41 2.25 11.75 2.59 11.75 3V6C11.75 6.41 11.41 6.75 11 6.75Z" />
<path d="M12 22.75C11.59 22.75 11.25 22.41 11.25 22V19C11.25 18.59 11.59 18.25 12 18.25C12.41 18.25 12.75 18.59 12.75 19V22C12.75 22.41 12.41 22.75 12 22.75Z" />
</svg>

<?xml version="1.0" encoding="UTF-8"?>
<svg width="24" height="24" viewBox="0 0 24 24" xmlns="http://www.w3.org/2000/svg">
 <path d="m8 11.75c-0.41 0-0.75-0.34-0.75-0.75v-5c0-2.62 2.13-4.75 4.75-4.75s4.75 2.13 4.75 4.75v0.3c0 0.41-0.34 0.75-0.75 0.75s-0.75-0.34-0.75-0.75v-0.3c0-1.79-1.46-3.25-3.25-3.25s-3.25 1.46-3.25 3.25v5c0 0.41-0.34 0.75-0.75 0.75z"/>
 <path d="m12 16.25c-1.34 0-2.62-0.57-3.52-1.56-0.28-0.31-0.25-0.78 0.05-1.06 0.31-0.28 0.78-0.25 1.06 0.05 0.61005 0.68 1.49 1.07 2.41 1.07 1.79 0 3.25-1.46 3.25-3.25v-0.5c0-0.41 0.34-0.75 0.75-0.75s0.75 0.34 0.75 0.75v0.5c0 2.62-2.13 4.75-4.75 4.75z"/>
 <path d="m12 19.75c-2.13 0-4.17-0.8-5.73-2.25-0.3-0.28-0.32-0.76-0.04-1.06 0.29-0.31 0.77-0.32 1.07-0.04 1.28 1.19 2.95 1.85 4.7 1.85 3.8 0 6.9-3.1 6.9-6.9v-1.7c0-0.41 0.34-0.75 0.75-0.75s0.75 0.34 0.75 0.75v1.7c0 4.63-3.77 8.4-8.4 8.4z"/>
 <path d="m4.9501 15.08c-0.29 0-0.57-0.17-0.69-0.46-0.44-1.04-0.66-2.13-0.66-3.27v-1.7c0-0.41 0.34-0.75 0.75-0.75s0.75 0.34 0.75 0.75v1.7c0 0.93 0.18 1.83 0.54 2.68 0.16 0.38-0.02 0.82-0.4 0.98-0.09 0.05-0.19 0.07-0.29 0.07z"/>
 <path d="m3.9199 19.74c-0.19 0-0.38-0.07-0.53-0.22-0.29-0.29-0.29-0.77 0-1.06l16.15-16.15c0.29-0.29 0.77-0.29 1.06 0s0.29 0.77 0 1.06l-16.14 16.15c-0.15 0.15-0.34 0.22-0.54 0.22z"/>
 <path d="m11 6.75c-0.41 0-0.75-0.34-0.75-0.75v-3c0-0.41 0.34-0.75 0.75-0.75s0.75 0.34 0.75 0.75v3c0 0.41-0.34 0.75-0.75 0.75z"/>
 <path d="m12 22.75c-0.41 0-0.75-0.34-0.75-0.75v-3c0-0.41 0.34-0.75 0.75-0.75s0.75 0.34 0.75 0.75v3c0 0.41-0.34 0.75-0.75 0.75z"/>
</svg>
